src/images/svg/symbols/markets-stocks-and-indices/american-stocks/stocks-amazon-com-inc.svg

<svg width="32" height="32" viewBox="0 0 32 32" fill="none" xmlns="http://www.w3.org/2000/svg">
<path d="M0 16C0 7.16344 7.16344 0 16 0V0C24.8366 0 32 7.16344 32 16V16C32 24.8366 24.8366 32 16 32V32C7.16344 32 0 24.8366 0 16V16Z" fill="#F2F3F4"/>
<path fill-rule="evenodd" clip-rule="evenodd" d="M17.7732 14.285C17.7732 15.296 17.7988 16.1391 17.2878 17.0369C16.8754 17.7669 16.2221 18.2158 15.4921 18.2158C14.4957 18.2158 13.9154 17.4566 13.9154 16.3362C13.9154 14.1244 15.8972 13.7229 17.7732 13.7229V14.285ZM20.3901 20.61C20.2185 20.7633 19.9704 20.7743 19.7769 20.6721C18.9156 19.9567 18.7623 19.6246 18.2878 18.9421C16.8644 20.3947 15.8571 20.829 14.0103 20.829C11.8278 20.829 10.127 19.4822 10.127 16.7851C10.127 14.6792 11.2694 13.2448 12.8934 12.5441C14.3023 11.9236 16.2695 11.8141 17.7732 11.6426V11.3068C17.7732 10.6899 17.8206 9.96001 17.4594 9.42718C17.1418 8.94904 16.5359 8.75194 16.003 8.75194C15.014 8.75194 14.1307 9.25923 13.9154 10.3104C13.8716 10.544 13.7001 10.774 13.4665 10.7849L10.9481 10.5148C10.7365 10.4673 10.5029 10.2958 10.5613 9.97094C11.1416 6.9198 13.8971 6 16.3643 6C17.6272 6 19.2768 6.33581 20.2732 7.29208C21.5361 8.47091 21.4156 10.0439 21.4156 11.7557V15.7996C21.4156 17.015 21.9193 17.5478 22.3937 18.2048C22.5616 18.4384 22.5981 18.7195 22.3864 18.8946C21.8572 19.3362 20.9155 20.1575 20.3973 20.6174L20.39 20.61" fill="black"/>
<path d="M23.2169 22.1469C15.1209 25.9999 10.0965 22.7762 6.88015 20.8182C6.68113 20.6948 6.34286 20.8471 6.63636 21.1842C7.70787 22.4834 11.2194 25.6149 15.8031 25.6149C20.3898 25.6149 23.1186 23.1122 23.4599 22.6756C23.7989 22.2427 23.5594 22.0039 23.2168 22.1469H23.2169ZM25.4906 20.8912C25.2732 20.6081 24.1686 20.5553 23.4734 20.6407C22.7772 20.7237 21.7322 21.1492 21.823 21.4047C21.8696 21.5004 21.9648 21.4574 22.4431 21.4144C22.9227 21.3666 24.2662 21.197 24.5462 21.563C24.8274 21.9315 24.1177 23.6869 23.988 23.97C23.8628 24.2532 24.0359 24.3262 24.2712 24.1376C24.5032 23.9491 24.9232 23.461 25.2051 22.7702C25.4851 22.0757 25.6558 21.1068 25.4905 20.8912H25.4906Z" fill="#FF9900"/>
</svg>

<svg width="32" height="32" fill="none" xmlns="http://www.w3.org/2000/svg"><path d="M0 16C0 7.163 7.163 0 16 0s16 7.163 16 16-7.163 16-16 16S0 24.837 0 16Z" fill="#F2F3F4"/><path fill-rule="evenodd" clip-rule="evenodd" d="M17.773 14.285c0 1.011.026 1.854-.485 2.752-.413.73-1.066 1.179-1.796 1.179-.996 0-1.577-.76-1.577-1.88 0-2.212 1.982-2.613 3.858-2.613v.562Zm2.617 6.325a.542.542 0 0 1-.613.062c-.861-.715-1.015-1.047-1.49-1.73-1.423 1.453-2.43 1.887-4.277 1.887-2.182 0-3.883-1.347-3.883-4.044 0-2.106 1.142-3.54 2.766-4.24 1.41-.621 3.377-.73 4.88-.902v-.336c0-.617.048-1.347-.314-1.88-.317-.478-.923-.675-1.456-.675-.989 0-1.872.507-2.088 1.558-.043.234-.215.464-.448.475l-2.519-.27c-.212-.048-.445-.22-.387-.544C11.141 6.92 13.897 6 16.364 6c1.263 0 2.913.336 3.91 1.292 1.262 1.179 1.142 2.752 1.142 4.464V15.8c0 1.215.503 1.748.978 2.405.168.233.204.515-.008.69-.529.441-1.47 1.262-1.989 1.722l-.007-.007" fill="#000"/><path d="M23.217 22.147c-8.096 3.853-13.12.63-16.337-1.329-.199-.123-.537.03-.244.366 1.072 1.3 4.583 4.43 9.167 4.43 4.587 0 7.316-2.502 7.657-2.938.339-.433.1-.672-.243-.53Zm2.274-1.256c-.218-.283-1.322-.336-2.018-.25-.696.083-1.74.508-1.65.764.047.095.142.052.62.01.48-.048 1.823-.218 2.103.148.281.369-.428 2.124-.558 2.407-.125.283.048.356.283.168.232-.189.652-.677.934-1.368.28-.694.45-1.663.286-1.879Z" fill="#F90"/></svg>
